X:0491
T:Jink About.
M:6/8
L:1/8
Q:3/8=120
I: :: ::
Z:Jack Campin * www.campin.me.uk * 2009
K:A Mixolydian
f|ecA def|ece c2f|ecA e>dc|BcB d2
f|ecA def|ece c2e|fgf edc |BcB d2::
f|ecA ecA|ecA d2f|ecA edc |BcB d2
f|ecA ecA|ecA c2e|fgf edc |BcB d2:|
<end>
<start>
